svgs/solid/sleigh.svg

<svg xmlns="http://www.w3.org/2000/svg" viewBox="0 0 640 512"><!-- Font Awesome Pro 6.0.0-alpha2 by @fontawesome - https://fontawesome.com License - https://fontawesome.com/license (Commercial License) --><path d="M612.75 350.75L603.375 343.25C596.5 337.75 586.375 338.875 580.875 345.75L570.875 358.25C565.375 365.25 566.5 375.25 573.375 380.75L582.75 388.25C588.625 392.875 591.875 399.875 591.875 407.375C591.875 421 580.875 432 567.25 432H48C39.25 432 32 439.25 32 448V464C32 472.75 39.25 480 48 480H564C603 480 637.75 450.75 639.875 411.75C641.25 387.875 631.25 365.375 612.75 350.75ZM32 224C32 283.625 72.875 333.25 128 347.5V400H192V352H384V400H448V352C501 352 544 309 544 256V160C561.75 160 576 145.75 576 128S561.75 96 544 96H448V160C448 195.25 419.25 224 384 224H363.25C297.5 224 237.375 186.75 208 128S118.375 32 52.75 32H32C14.25 32 0 46.25 0 64S14.25 96 32 96V224Z"/></svg>

<svg xmlns="http://www.w3.org/2000/svg" viewBox="0 0 640 512"><!--! Font Awesome Pro 6.0.0-alpha3 by @fontawesome - https://fontawesome.com License - https://fontawesome.com/license (Commercial License) --><path d="M612.7 350.8l-9.375-7.5c-6.875-5.5-17-4.375-22.5 2.5l-10 12.5c-5.5 7-4.375 17 2.5 22.5l9.375 7.5c5.875 4.625 9.125 11.63 9.125 19.13c0 13.62-11 24.62-24.62 24.62H48C39.25 432 32 439.2 32 448l.0001 16c0 8.75 7.25 16 16 16h516c39 0 73.72-29.25 75.84-68.25C641.2 387.9 631.2 365.4 612.7 350.8zM32 224c0 59.63 40.88 109.2 96 123.5V400h64V352h192v48h64V352c53 0 96-43 96-96V160c17.75 0 32-14.25 32-32s-14.25-32-32-32h-96v64c0 35.25-28.75 64-64 64h-20.75C297.5 224 237.4 186.8 208 128S118.4 32 52.75 32H32C14.25 32 0 46.25 0 64s14.25 32 32 32V224z"/></svg>
